SVG_Azure_Grouped/Generic/Tenant Status.svg

<?xml version="1.0" encoding="UTF-8" standalone="no"?>
<!-- Generated by Microsoft Visio, SVG Export Tenant Status.svg Page-1 -->

<svg
   xmlns:dc="http://purl.org/dc/elements/1.1/"
   xmlns:cc="http://creativecommons.org/ns#"
   xmlns:rdf="http://www.w3.org/1999/02/22-rdf-syntax-ns#"
   xmlns:svg="http://www.w3.org/2000/svg"
   xmlns="http://www.w3.org/2000/svg"
   xmlns:sodipodi="http://sodipodi.sourceforge.net/DTD/sodipodi-0.dtd"
   xmlns:inkscape="http://www.inkscape.org/namespaces/inkscape"
   width="0.78770071in"
   height="0.78744477in"
   viewBox="0 0 56.714555 56.696199"
   xml:space="preserve"
   class="st7"
   version="1.1"
   id="svg55"
   sodipodi:docname="Tenant Status.svg"
   style="font-size:12px;overflow:visible;color-interpolation-filters:sRGB;fill:none;fill-rule:evenodd;stroke-linecap:square;stroke-miterlimit:3"
   inkscape:version="0.92.5 (2060ec1f9f, 2020-04-08)"><metadata
   id="metadata59"><rdf:RDF><cc:Work
       rdf:about=""><dc:format>image/svg+xml</dc:format><dc:type
         rdf:resource="http://purl.org/dc/dcmitype/StillImage" /></cc:Work></rdf:RDF></metadata><sodipodi:namedview
   pagecolor="#ffffff"
   bordercolor="#666666"
   borderopacity="1"
   objecttolerance="10"
   gridtolerance="10"
   guidetolerance="10"
   inkscape:pageopacity="0"
   inkscape:pageshadow="2"
   inkscape:window-width="640"
   inkscape:window-height="480"
   id="namedview57"
   showgrid="false"
   inkscape:zoom="1.5148061"
   inkscape:cx="29.504149"
   inkscape:cy="32.547632"
   inkscape:window-x="0"
   inkscape:window-y="0"
   inkscape:window-maximized="0"
   inkscape:current-layer="svg55" />
	<style
   type="text/css"
   id="style2">
	<![CDATA[
		.st1 {fill:url(#grad0-6);stroke:none;stroke-linecap:butt;stroke-width:26.1379}
		.st2 {fill:#ffffff;fill-opacity:0.8;stroke:none;stroke-linecap:butt;stroke-width:26.1379}
		.st3 {fill:url(#grad0-12);stroke:none;stroke-linecap:butt;stroke-width:26.1379}
		.st4 {fill:#ffffff;stroke:none;stroke-linecap:butt;stroke-width:13.6791}
		.st5 {fill:#dd5900;stroke:none;stroke-linecap:butt;stroke-width:13.6791}
		.st6 {fill:#ba141a;stroke:none;stroke-linecap:butt;stroke-width:13.6791}
		.st7 {fill:none;fill-rule:evenodd;font-size:12px;overflow:visible;stroke-linecap:square;stroke-miterlimit:3}
	]]>
	</style>

	<defs
   id="Patterns_And_Gradients">
		<linearGradient
   id="grad0-6"
   x1="-0.016937994"
   y1="118.40971"
   x2="32.162974"
   y2="118.40971"
   gradientTransform="scale(1.288743,0.77594991)"
   gradientUnits="userSpaceOnUse">
			<stop
   offset="0.22"
   stop-color="#32d4f5"
   stop-opacity="1"
   id="stop4" />
			<stop
   offset="1"
   stop-color="#198ab3"
   stop-opacity="1"
   id="stop6" />
		</linearGradient>
		<linearGradient
   id="grad0-12"
   x1="0"
   y1="94.067469"
   x2="23.153281"
   y2="94.067469"
   gradientTransform="scale(1.0032012,0.996809)"
   gradientUnits="userSpaceOnUse">
			<stop
   offset="0.22"
   stop-color="#32d4f5"
   stop-opacity="1"
   id="stop9" />
			<stop
   offset="1"
   stop-color="#198ab3"
   stop-opacity="1"
   id="stop11" />
		</linearGradient>
	</defs>
	<g
   id="g53"
   transform="translate(-26.137531,-26.1381)">
		<title
   id="title15">Page-1</title>
		<g
   id="group16463-1"
   transform="translate(26.1593,-34.0157)">
			<title
   id="title17">Tenant Status.16463</title>
			<g
   id="group16464-2"
   transform="translate(0,-11.3404)">
				<title
   id="title19">Icon-identity-230</title>
				<g
   id="shape16465-3">
					<title
   id="title21">path4</title>
					<path
   d="m 37.76,116.85 a 3.67683,3.65339 -180 0 0 3.67,-3.66 1.1918,1.1842 -180 0 0 0,-0.43 C 39.96,101.25 33.4,91.88 20.72,91.88 8.04,91.88 1.29,99.81 0,112.79 a 3.70219,3.67859 -180 0 0 3.32,4.06 z"
   class="st1"
   id="path23"
   inkscape:connector-curvature="0"
   style="fill:url(#grad0-6);stroke:none;stroke-width:26.1378994;stroke-linecap:butt" />
				</g>
				<g
   id="shape16466-7"
   transform="translate(14.4284,-7.91149)">
					<title
   id="title26">path6</title>
					<path
   d="M 6.29,102.51 A 11.6391,11.5649 0 0 1 0,100.67 l 6.29,16.18 6.19,-16.08 a 11.4869,11.4137 0 0 1 -6.19,1.74 z"
   class="st2"
   id="path28"
   inkscape:connector-curvature="0"
   style="fill:#ffffff;fill-opacity:0.8;stroke:none;stroke-width:26.1378994;stroke-linecap:butt" />
				</g>
				<g
   id="shape16467-9"
   transform="translate(9.12869,-22.2731)">
					<title
   id="title31">circle8</title>
					<ellipse
   cx="11.6137"
   cy="105.307"
   rx="11.6137"
   ry="11.5397"
   class="st3"
   id="ellipse33"
   style="fill:url(#grad0-12);stroke:none;stroke-width:26.1378994;stroke-linecap:butt" />
				</g>
			</g>
			<g
   id="shape16468-13"
   transform="translate(20.8621,-2.29701)">
				<title
   id="title37">path6-6</title>
				<path
   d="M 29.13,101.99 23.25,96.17 12.92,92.21 9.65,97.23 5.32,100.68 H 0 l 1.65,3.36 h 6.31 c 4.59,7.11 10.62,12.81 10.62,12.81 0,0 6.01,-3.96 10.62,-10.89 h 2.11 a 13.4113,13.3258 -180 0 0 1.87,-3.59 z"
   class="st4"
   id="path39"
   inkscape:connector-curvature="0"
   style="fill:#ffffff;stroke:none;stroke-width:13.67910004;stroke-linecap:butt" />
			</g>
			<g
   id="shape16469-15"
   transform="translate(20.3352,-13.2441)">
				<title
   id="title42">path10</title>
				<path
   d="m 26.59,98.44 c -3.21,0 -5.96,2.01 -7.32,4.91 -1.36,-2.9 -4.11,-4.91 -7.32,-4.91 -4.55,0 -8.24,3.99 -8.24,8.9 0,1.1 0.16,2.21 0.45,3.31 H 0 l 1.09,2.17 h 8.5 l 4.73,-7.26 5.49,11.29 5.22,-7.26 3.85,4.68 h 4.49 c 0.91,-2.17 1.46,-4.5 1.46,-6.93 0,-4.91 -3.69,-8.9 -8.24,-8.9 z"
   class="st5"
   id="path44"
   inkscape:connector-curvature="0"
   style="fill:#dd5900;stroke:none;stroke-width:13.67910004;stroke-linecap:butt" />
			</g>
			<g
   id="shape16470-17"
   transform="translate(26.2128)">
				<title
   id="title47">path12</title>
				<path
   d="m 30.48,103.19 h -8.52 l -2.69,-3.27 -5.7,7.92 L 8.16,96.73 4.9,101.75 H 0 c 4.28,8.14 13.39,15.1 13.39,15.1 0,0 7.16,-4.55 11.76,-11.49 h 4.24 z"
   class="st6"
   id="path49"
   inkscape:connector-curvature="0"
   style="fill:#ba141a;stroke:none;stroke-width:13.67910004;stroke-linecap:butt" />
			</g>
		</g>
	</g>
</svg>

<?xml version="1.0" encoding="UTF-8" standalone="no"?>
<!DOCTYPE svg PUBLIC "-//W3C//DTD SVG 1.1//EN" "http://www.w3.org/Graphics/SVG/1.1/DTD/svg11.dtd">
<!-- Generated by Microsoft Visio, SVG Export Tenant Status.svg Page-1 -->
<svg xmlns="http://www.w3.org/2000/svg" xmlns:xlink="http://www.w3.org/1999/xlink" xmlns:ev="http://www.w3.org/2001/xml-events"
		width="1.34071in" height="1.62287in" viewBox="0 0 96.5313 116.847" xml:space="preserve" color-interpolation-filters="sRGB"
		class="st7">
	<style type="text/css">
	<![CDATA[
		.st1 {fill:url(#grad0-6);stroke:none;stroke-linecap:butt;stroke-width:26.1379}
		.st2 {fill:#ffffff;fill-opacity:0.8;stroke:none;stroke-linecap:butt;stroke-width:26.1379}
		.st3 {fill:url(#grad0-12);stroke:none;stroke-linecap:butt;stroke-width:26.1379}
		.st4 {fill:#ffffff;stroke:none;stroke-linecap:butt;stroke-width:13.6791}
		.st5 {fill:#dd5900;stroke:none;stroke-linecap:butt;stroke-width:13.6791}
		.st6 {fill:#ba141a;stroke:none;stroke-linecap:butt;stroke-width:13.6791}
		.st7 {fill:none;fill-rule:evenodd;font-size:12px;overflow:visible;stroke-linecap:square;stroke-miterlimit:3}
	]]>
	</style>

	<defs id="Patterns_And_Gradients">
		<linearGradient id="grad0-6" x1="0" y1="0" x2="1" y2="0" gradientTransform="rotate(90 0.5 0.5)">
			<stop offset="0.22" stop-color="#32d4f5" stop-opacity="1"/>
			<stop offset="1" stop-color="#198ab3" stop-opacity="1"/>
		</linearGradient>
		<linearGradient id="grad0-12" x1="0" y1="0" x2="1" y2="0" gradientTransform="rotate(85.405746668733 0.5 0.5)">
			<stop offset="0.22" stop-color="#32d4f5" stop-opacity="1"/>
			<stop offset="1" stop-color="#198ab3" stop-opacity="1"/>
		</linearGradient>
	</defs>
	<g>
		<title>Page-1</title>
		<g id="group16080-1" transform="translate(26.1593,-34.0157)">
			<title>Tenant Status.16080</title>
			<g id="group16081-2" transform="translate(0,-11.3404)">
				<title>Icon-identity-230</title>
				<g id="shape16082-3">
					<title>path4</title>
					<path d="M37.76 116.85 A3.67683 3.65339 -180 0 0 41.43 113.19 A1.1918 1.1842 -180 0 0 41.43 112.76 C39.96 101.25
								 33.4 91.88 20.72 91.88 C8.04 91.88 1.29 99.81 0 112.79 A3.70219 3.67859 -180 0 0 3.32 116.85 L37.76
								 116.85 Z" class="st1"/>
				</g>
				<g id="shape16083-7" transform="translate(14.4284,-7.91149)">
					<title>path6</title>
					<path d="M6.29 102.51 A11.6391 11.5649 0 0 1 0 100.67 L6.29 116.85 L12.48 100.77 A11.4869 11.4137 0 0 1 6.29
								 102.51 Z" class="st2"/>
				</g>
				<g id="shape16084-9" transform="translate(9.12869,-22.2731)">
					<title>circle8</title>
					<ellipse cx="11.6137" cy="105.307" rx="11.6137" ry="11.5397" class="st3"/>
				</g>
			</g>
			<g id="shape16085-13" transform="translate(20.8621,-2.29701)">
				<title>path6-6</title>
				<path d="M29.13 101.99 L23.25 96.17 L12.92 92.21 L9.65 97.23 L5.32 100.68 L0 100.68 L1.65 104.04 L7.96 104.04 C12.55
							 111.15 18.58 116.85 18.58 116.85 C18.58 116.85 24.59 112.89 29.2 105.96 L31.31 105.96 A13.4113 13.3258
							 -180 0 0 33.18 102.37 L29.13 101.99 Z" class="st4"/>
			</g>
			<g id="shape16086-15" transform="translate(20.3352,-13.2441)">
				<title>path10</title>
				<path d="M26.59 98.44 C23.38 98.44 20.63 100.45 19.27 103.35 C17.91 100.45 15.16 98.44 11.95 98.44 C7.4 98.44 3.71
							 102.43 3.71 107.34 C3.71 108.44 3.87 109.55 4.16 110.65 L0 110.65 L1.09 112.82 L9.59 112.82 L14.32 105.56
							 L19.81 116.85 L25.03 109.59 L28.88 114.27 L33.37 114.27 C34.28 112.1 34.83 109.77 34.83 107.34 C34.83
							 102.43 31.14 98.44 26.59 98.44 Z" class="st5"/>
			</g>
			<g id="shape16087-17" transform="translate(26.2128,0)">
				<title>path12</title>
				<path d="M30.48 103.19 L21.96 103.19 L19.27 99.92 L13.57 107.84 L8.16 96.73 L4.9 101.75 L0 101.75 C4.28 109.89 13.39
							 116.85 13.39 116.85 C13.39 116.85 20.55 112.3 25.15 105.36 L29.39 105.36 L30.48 103.19 Z" class="st6"/>
			</g>
		</g>
	</g>
</svg>
